!! 00000] TT[WS
!!!OTL: Shoujin calei zhan bugan
!!!ARE: Asia, China,ÿShanxi Hequ
!! Ethnic Group: Han
!! WI, 7 (1)
!!!SCT: J0007
!!!YEM: Copyright 1995, estate of Helmut Schaffrath.
**kern
*ICvox
*Ivox
*M2/4
*k[]
*C:
{8a
8g
4c
=1
8.g
16a
8g
8a
=2
8ee
16dd
16cc
8d
8e
=3
2g}
=4
{8a
8g
4c
=5
8.g
16a
8g
8a
=6
8ee
16dd
16cc
8d
8e
=7
2c}
==
!!!AGN: Shange, Shanqu. Qingge
!!!ONB: ESAC (Essen Associative Code) Database: CHINA
!!!AMT: simple duple
!!!AIN: vox
!!!EED: Helmut Schaffrath
!!!EEV: 1.0
*-
